icons/folder-filter-open.svg

<?xml version="1.0" encoding="UTF-8" standalone="no"?>
<!-- Created with Inkscape (http://www.inkscape.org/) -->

<svg
   width="16"
   height="16"
   viewBox="0 0 16 16"
   version="1.1"
   id="svg1"
   xml:space="preserve"
   xmlns="http://www.w3.org/2000/svg"
   xmlns:svg="http://www.w3.org/2000/svg"><defs
     id="defs1" /><path
     d="M 14.483,6 H 4.7209999 A 1,1 0 0 0 3.772,6.684 L 2,12 V 5 H 14 A 1,1 0 0 0 13,4 H 7.5619999 a 1,1 0 0 1 -0.64,-0.232 l -0.644,-0.536 A 1,1 0 0 0 5.6379999,3 H 2 A 1,1 0 0 0 1,4 v 8 a 1,1 0 0 0 1,1 H 13 L 15.403,7.394 A 1,1 0 0 0 14.483,6"
     fill="#90a4ae"
     id="path1-2"
     style="fill:#7e57c2;fill-opacity:1" /><path
     style="fill:#d1c4e9;fill-opacity:1;stroke:none;stroke-width:1px;stroke-linecap:butt;stroke-linejoin:miter;stroke-opacity:1"
     d="M 15,6 H 7 C 6.6309751,6 6.4461668,6.4461668 6.7071068,6.7071068 L 10,10 v 4 l 1.292893,1.292893 A 0.41421356,0.41421356 0 0 0 12,15 V 10 L 15.292893,6.7071068 C 15.553833,6.4461669 15.369025,6.0000002 15,6 Z"
     id="path2" /></svg>

<svg viewBox="0 0 16 16" xmlns="http://www.w3.org/2000/svg"><path d="M14.483 6H4.721a1 1 0 00-.949.684L2 12V5h12a1 1 0 00-1-1H7.562a1 1 0 01-.64-.232l-.644-.536A1 1 0 005.638 3H2a1 1 0 00-1 1v8a1 1 0 001 1h11l2.403-5.606A1 1 0 0014.483 6" fill="#7e57c2"/><path d="M15 6H7a.414.414 0 00-.293.707L10 10v4l1.293 1.293A.414.414 0 0012 15v-5l3.293-3.293A.414.414 0 0015 6z" fill="#d1c4e9"/></svg>
